src/assets/img/Wallet.svg

<svg width="24" height="24" viewBox="0 0 24 24" fill="none" xmlns="http://www.w3.org/2000/svg">
<path d="M15.4847 3.67075L15.2915 2.94607L15.2915 2.94607L15.4847 3.67075ZM4.48467 6.60409L4.29142 5.87941L4.29142 5.87941L4.48467 6.60409ZM19 19.25H5V20.75H19V19.25ZM5 19.25C4.30964 19.25 3.75 18.6904 3.75 18H2.25C2.25 19.5188 3.48122 20.75 5 20.75V19.25ZM3.75 18V9H2.25V18H3.75ZM3.75 9C3.75 8.30964 4.30964 7.75 5 7.75V6.25C3.48122 6.25 2.25 7.48121 2.25 9H3.75ZM5 7.75H19V6.25H5V7.75ZM19 7.75C19.6904 7.75 20.25 8.30963 20.25 9H21.75C21.75 7.48122 20.5188 6.25 19 6.25V7.75ZM20.25 9V18H21.75V9H20.25ZM20.25 18C20.25 18.6904 19.6904 19.25 19 19.25V20.75C20.5188 20.75 21.75 19.5188 21.75 18H20.25ZM16.5 13.25C16.6381 13.25 16.75 13.3619 16.75 13.5H15.25C15.25 14.1903 15.8097 14.75 16.5 14.75V13.25ZM16.75 13.5C16.75 13.6381 16.6381 13.75 16.5 13.75V12.25C15.8097 12.25 15.25 12.8097 15.25 13.5H16.75ZM16.5 13.75C16.3619 13.75 16.25 13.6381 16.25 13.5H17.75C17.75 12.8097 17.1903 12.25 16.5 12.25V13.75ZM16.25 13.5C16.25 13.3619 16.3619 13.25 16.5 13.25V14.75C17.1903 14.75 17.75 14.1903 17.75 13.5H16.25ZM18.75 7V5.60322H17.25V7H18.75ZM18.75 5.60322C18.75 3.79639 17.0373 2.48052 15.2915 2.94607L15.6779 4.39543C16.4715 4.18381 17.25 4.78192 17.25 5.60322H18.75ZM15.2915 2.94607L4.29142 5.87941L4.67792 7.32876L15.6779 4.39542L15.2915 2.94607ZM4.29142 5.87941C3.08761 6.20043 2.25 7.29067 2.25 8.53656H3.75C3.75 7.97025 4.13073 7.47468 4.67792 7.32876L4.29142 5.87941ZM2.25 8.53656V9H3.75V8.53656H2.25Z" fill="white"/>
</svg>

<svg xmlns="http://www.w3.org/2000/svg" width="24" height="24" fill="none"><path fill="#fff" d="m15.485 3.67-.194-.724.194.725Zm-11 2.934L4.29 5.88l.194.725ZM19 19.25H5v1.5h14v-1.5Zm-14 0c-.69 0-1.25-.56-1.25-1.25h-1.5A2.75 2.75 0 0 0 5 20.75v-1.5ZM3.75 18V9h-1.5v9h1.5Zm0-9c0-.69.56-1.25 1.25-1.25v-1.5A2.75 2.75 0 0 0 2.25 9h1.5ZM5 7.75h14v-1.5H5v1.5Zm14 0c.69 0 1.25.56 1.25 1.25h1.5A2.75 2.75 0 0 0 19 6.25v1.5ZM20.25 9v9h1.5V9h-1.5Zm0 9c0 .69-.56 1.25-1.25 1.25v1.5A2.75 2.75 0 0 0 21.75 18h-1.5Zm-3.75-4.75a.25.25 0 0 1 .25.25h-1.5c0 .69.56 1.25 1.25 1.25v-1.5Zm.25.25a.25.25 0 0 1-.25.25v-1.5c-.69 0-1.25.56-1.25 1.25h1.5Zm-.25.25a.25.25 0 0 1-.25-.25h1.5c0-.69-.56-1.25-1.25-1.25v1.5Zm-.25-.25a.25.25 0 0 1 .25-.25v1.5c.69 0 1.25-.56 1.25-1.25h-1.5Zm2.5-6.5V5.603h-1.5V7h1.5Zm0-1.397a2.75 2.75 0 0 0-3.459-2.657l.387 1.45a1.25 1.25 0 0 1 1.572 1.207h1.5Zm-3.459-2.657-11 2.933.387 1.45 11-2.934-.387-1.449Zm-11 2.933A2.75 2.75 0 0 0 2.25 8.537h1.5c0-.567.38-1.062.928-1.208l-.387-1.45ZM2.25 8.537V9h1.5v-.463h-1.5Z"/></svg>
